src/client/web-contents/img/common/badge/badge_family_03.svg

<svg height="32" viewBox="0 0 48 32" width="48" xmlns="http://www.w3.org/2000/svg"><g fill="none" fill-rule="evenodd"><rect fill="#119ed7" height="32" rx="4" width="48"/><path d="m22.1 14.42h-12.1v-7.38h2.02v2.14h8.04v-2.18h2.04zm-5.06 9.78h-2.04v-6h-7v-1.66h16.1v1.66h-7.06zm3.02-11.44v-1.96h-8.04v1.96zm20.34 9.16h-16.1v-1.64h7v-4.1h-5v-8.42h12.12v8.42h-5.08v4.1h7.06zm-4.02-7.36v-5.16h-8.04v5.16z" fill="#fff"/></g></svg>

<?xml version="1.0" encoding="UTF-8" standalone="no"?>
<svg width="48px" height="32px" viewBox="0 0 48 32" version="1.1" xmlns="http://www.w3.org/2000/svg" xmlns:xlink="http://www.w3.org/1999/xlink">
    <!-- Generator: Sketch 50.2 (55047) - http://www.bohemiancoding.com/sketch -->
    <title>graphic_badge_family_03</title>
    <desc>Created with Sketch.</desc>
    <defs></defs>
    <g id="Icon_Badge_Graphic" stroke="none" stroke-width="1" fill="none" fill-rule="evenodd">
        <g id="##Element/Badge/Family03">
            <rect id="Rectangle-2" fill="#119ED7" x="0" y="0" width="48" height="32" rx="4"></rect>
            <path d="M22.1,14.42 L10,14.42 L10,7.04 L12.02,7.04 L12.02,9.18 L20.06,9.18 L20.06,7 L22.1,7 L22.1,14.42 Z M17.04,24.2 L15,24.2 L15,18.2 L8,18.2 L8,16.54 L24.1,16.54 L24.1,18.2 L17.04,18.2 L17.04,24.2 Z M20.06,12.76 L20.06,10.8 L12.02,10.8 L12.02,12.76 L20.06,12.76 Z M40.4,21.92 L24.3,21.92 L24.3,20.28 L31.3,20.28 L31.3,16.18 L26.3,16.18 L26.3,7.76 L38.42,7.76 L38.42,16.18 L33.34,16.18 L33.34,20.28 L40.4,20.28 L40.4,21.92 Z M36.38,14.56 L36.38,9.4 L28.34,9.4 L28.34,14.56 L36.38,14.56 Z" id="부모" fill="#FFFFFF"></path>
        </g>
    </g>
</svg>
